usr/share/icons/biglinux-icons-material/scalable/apps/gnome-books.svg

<?xml version="1.0" encoding="UTF-8" standalone="no"?>
<svg
   width="24"
   height="24"
   viewBox="0 0 6.349875 6.349875"
   version="1.1"
   id="svg20137"
   sodipodi:docname="accessories-ebook-reader.svg"
   xml:space="preserve"
   inkscape:version="1.2.2 (b0a8486541, 2022-12-01)"
   xmlns:inkscape="http://www.inkscape.org/namespaces/inkscape"
   xmlns:sodipodi="http://sodipodi.sourceforge.net/DTD/sodipodi-0.dtd"
   xmlns="http://www.w3.org/2000/svg"
   xmlns:svg="http://www.w3.org/2000/svg"><sodipodi:namedview
     id="namedview20139"
     pagecolor="#ffffff"
     bordercolor="#000000"
     borderopacity="0.25"
     inkscape:showpageshadow="2"
     inkscape:pageopacity="0.0"
     inkscape:pagecheckerboard="0"
     inkscape:deskcolor="#d1d1d1"
     showgrid="false"
     inkscape:zoom="4"
     inkscape:cx="-36"
     inkscape:cy="9.25"
     inkscape:window-width="2560"
     inkscape:window-height="998"
     inkscape:window-x="1680"
     inkscape:window-y="0"
     inkscape:window-maximized="1"
     inkscape:current-layer="svg20137" /><defs
     id="defs20121"><filter
       id="a"
       x="-0.027599999"
       y="-0.18445445"
       width="1.0552"
       height="1.3689089"
       color-interpolation-filters="sRGB"><feGaussianBlur
         stdDeviation=".529"
         id="feGaussianBlur20118" /></filter><radialGradient
       fx="0"
       fy="0"
       cx="0"
       cy="0"
       r="1"
       gradientUnits="userSpaceOnUse"
       gradientTransform="matrix(0,5.8207184,-5.8207184,0,3.174815,0.264582)"
       spreadMethod="pad"
       id="radialGradient3666-6"><stop
         style="stop-color:#9cd3c9;stop-opacity:0.93725491;"
         offset="0"
         id="stop3662-7" /><stop
         style="stop-color:#009577;stop-opacity:1;"
         offset="1"
         id="stop3664-5" /></radialGradient></defs><path
     d="m 2.538065,0.294917 c 0.031749,0 0.062088,-0.0042 0.091015,-0.01235 0.3802869,-0.02505 0.7605737,-0.02364 1.1398026,0.0028 0.3443042,0.02752 0.6776726,0.10195 1.0004579,0.224362 0.5358586,0.220482 0.9023876,0.603591 1.1009976,1.147916 0.111476,0.328077 0.178855,0.665679 0.199669,1.011394 0.02751,0.435672 0.01799,0.86958 -0.03034,1.303841 -0.03704,0.304442 -0.115708,0.596536 -0.237062,0.877694 C 5.5778911,5.338456 5.2127741,5.674647 4.7086643,5.859146 4.3005084,5.997079 3.8803583,6.070103 3.4475085,6.077158 2.9624487,6.103292 2.4816221,6.065891 2.0050286,5.968175 1.129804,5.773798 0.588301,5.239351 0.384399,4.365537 0.297619,3.972903 0.257402,3.574625 0.265868,3.172114 0.256368,2.744908 0.301498,2.321935 0.402391,1.905666 0.617228,1.09006 1.135448,0.584186 1.9566991,0.388751 2.1482536,0.341831 2.3426304,0.310081 2.5380654,0.294911 Z"
     style="fill:url(#radialGradient3666-6);fill-rule:evenodd;stroke:none;stroke-width:0.352683;stroke-dasharray:none"
     id="path3668" /><path
     id="path33327"
     style="fill:#ffffff;fill-opacity:1;fill-rule:evenodd;stroke:none;stroke-width:0.352683;stroke-dasharray:none"
     d="m 2.6680017,0.27900115 c -0.012914,7.897e-4 -0.025843,0.00122 -0.038757,0.00207 -0.028927,0.00815 -0.0592,0.012402 -0.090949,0.012402 -0.1954348,0.0151671 -0.3897941,0.0466096 -0.5813484,0.0935296 -0.1371674,0.032642 -0.2657567,0.0745787 -0.3860154,0.1245377 V 5.2429415 L 2.1197255,4.6936319 2.6680017,5.241908 Z"
     sodipodi:nodetypes="ccccccccc" /><path
     d="m 0.73150444,1.4374165 a 0.09218988,0.09218988 0 0 0 -0.0939035,0.090819 v 2.3575248 c 0,0.050036 0.041811,0.090477 0.0939035,0.090477 0.84513096,0 1.97231506,0.1816381 2.44183226,0.5442288 v 0.00137 a 0.00651155,0.00651155 0 0 1 0.00172,-6.854e-4 0.00685427,0.00685427 0 0 1 0.00137,6.854e-4 v -0.00137 C 3.6459379,4.1578751 4.773122,3.9762371 5.6182529,3.9762371 a 0.09218988,0.09218988 0 0 0 0.093903,-0.090476 V 1.5278929 a 0.09218988,0.09218988 0 0 0 -0.093903,-0.090476 c -0.8451309,0 -1.972315,0.181638 -2.4418322,0.5442288 a 0.01302311,0.01302311 0 0 1 -0.00172,0.00102 0.01302311,0.01302311 0 0 1 -0.00137,-0.00102 C 2.7038195,1.6187119 1.5766354,1.4370738 0.73150444,1.4370738 Z"
     fill="#f9f9f9"
     opacity="0.9"
     style="stroke-width:0.342713;paint-order:stroke fill markers"
     id="path20290" /><path
     d="m 0.63762923,3.7950442 v 0.090675 c 0,0.050234 0.0418012,0.090675 0.0938487,0.090675 0.84518247,0 1.97218327,0.1813502 2.44188007,0.5440505 v 0.00145 a 0.00634725,0.00634725 0 0 1 0.00154,-7.266e-4 0.00652861,0.00652861 0 0 1 0.00164,7.266e-4 v -0.00145 C 3.6461515,4.1577446 4.7731519,3.9763944 5.6184251,3.9763944 c 0.052047,0 0.093849,-0.040441 0.093849,-0.090675 v -0.090675 c 0,0.050234 -0.041801,0.090675 -0.093849,0.090675 -0.8451823,0 -1.9722736,0.1813501 -2.4418799,0.5440505 v 0.00145 a 0.00634725,0.00634725 0 0 0 -0.00164,-7.265e-4 0.00634725,0.00634725 0 0 0 -0.00154,7.265e-4 v -0.00145 C 2.7037519,4.0670695 1.5767512,3.8857194 0.73147794,3.8857194 c -0.0520474,0 -0.0938487,-0.040441 -0.0938487,-0.090675 z"
     fill="#ffffff"
     opacity="0.25"
     style="stroke-width:0.0906751;paint-order:stroke fill markers"
     id="path20292" /><path
     d="m 0.63762923,3.8827968 v 0.090675 c 0,0.050234 0.0418012,0.090675 0.0938487,0.090675 0.84518247,0 1.97218327,0.1813502 2.44188007,0.5440505 v 0.00145 a 0.00634725,0.00634725 0 0 1 0.00154,-7.266e-4 0.00652861,0.00652861 0 0 1 0.00164,7.266e-4 v -0.00145 C 3.6461515,4.2454972 4.7731519,4.064147 5.6184251,4.064147 c 0.052047,0 0.093849,-0.040441 0.093849,-0.090675 V 3.882797 c 0,0.050234 -0.041801,0.090675 -0.093849,0.090675 -0.8451823,0 -1.9722736,0.1813501 -2.4418799,0.5440505 v 0.00145 a 0.00634725,0.00634725 0 0 0 -0.00164,-7.265e-4 0.00634725,0.00634725 0 0 0 -0.00154,7.265e-4 v -0.00145 C 2.7037519,4.1548221 1.5767512,3.973472 0.73147794,3.973472 c -0.0520474,0 -0.0938487,-0.040441 -0.0938487,-0.090675 z"
     fill="#ffffff"
     opacity="0.25"
     style="stroke-width:0.0906751;paint-order:stroke fill markers;fill:#808080"
     id="path21924" /></svg>

<svg xmlns="http://www.w3.org/2000/svg" xml:space="preserve" width="24" height="24" viewBox="0 0 6.35 6.35"><defs><radialGradient id="a" cx="0" cy="0" r="1" fx="0" fy="0" gradientTransform="rotate(90 1.455 1.72) scale(5.82072)" gradientUnits="userSpaceOnUse" spreadMethod="pad"><stop offset="0" style="stop-color:#9cd3c9;stop-opacity:.93725491"/><stop offset="1" style="stop-color:#009577;stop-opacity:1"/></radialGradient></defs><path d="M2.538.295A.334.334 0 0 0 2.63.283a8.42 8.42 0 0 1 1.14.002 3.62 3.62 0 0 1 1 .225c.536.22.903.603 1.101 1.148.112.328.18.665.2 1.011.028.436.018.87-.03 1.304a3.166 3.166 0 0 1-.237.878c-.225.487-.59.824-1.094 1.008a4.125 4.125 0 0 1-1.261.218 5.642 5.642 0 0 1-1.443-.109C1.13 5.774.588 5.24.385 4.366a5.025 5.025 0 0 1-.12-1.194c-.009-.427.036-.85.137-1.266C.617 1.09 1.135.584 1.957.389c.191-.047.386-.079.581-.094Z" style="fill:url(#a);fill-rule:evenodd;stroke:none;stroke-width:.352683;stroke-dasharray:none"/><path d="m2.668.279-.039.002a.334.334 0 0 1-.09.012c-.196.016-.39.047-.582.094a2.533 2.533 0 0 0-.386.125v4.73l.549-.548.548.548Z" style="fill:#fff;fill-opacity:1;fill-rule:evenodd;stroke:none;stroke-width:.352683;stroke-dasharray:none"/><path fill="#f9f9f9" d="M.732 1.437a.092.092 0 0 0-.094.091v2.358c0 .05.041.09.094.09.845 0 1.972.182 2.441.544v.002a.007.007 0 0 1 .002 0 .007.007 0 0 1 .001 0V4.52c.47-.362 1.597-.544 2.442-.544a.092.092 0 0 0 .094-.09V1.528a.092.092 0 0 0-.094-.09c-.845 0-1.972.181-2.442.544a.013.013 0 0 1-.001 0 .013.013 0 0 1-.002 0c-.47-.363-1.596-.545-2.441-.545Z" opacity=".9" style="stroke-width:.342713;paint-order:stroke fill markers"/><path fill="#fff" d="M.638 3.795v.09c0 .051.041.091.093.091.846 0 1.973.182 2.442.544v.002a.006.006 0 0 1 .002 0 .007.007 0 0 1 .002 0V4.52c.47-.362 1.596-.544 2.441-.544.052 0 .094-.04.094-.09v-.091c0 .05-.042.09-.094.09-.845 0-1.972.182-2.441.545v.001a.006.006 0 0 0-.002 0 .006.006 0 0 0-.002 0V4.43c-.47-.363-1.596-.544-2.442-.544a.092.092 0 0 1-.093-.091z" opacity=".25" style="stroke-width:.0906751;paint-order:stroke fill markers"/><path fill="#fff" d="M.638 3.883v.09c0 .05.041.091.093.091.846 0 1.973.181 2.442.544v.002a.006.006 0 0 1 .002-.001.007.007 0 0 1 .002 0c.47-.364 1.596-.545 2.441-.545.052 0 .094-.04.094-.09v-.091c0 .05-.042.09-.094.09-.845 0-1.972.182-2.441.545v.001a.006.006 0 0 0-.002 0 .006.006 0 0 0-.002 0v-.001c-.47-.363-1.596-.545-2.442-.545a.092.092 0 0 1-.093-.09z" opacity=".25" style="stroke-width:.0906751;paint-order:stroke fill markers;fill:gray"/></svg>
